brandFactory_export/3.Masa/Documento_Archivo AVI_3masa.svg

<?xml version="1.0" encoding="UTF-8"?>
<svg width="24px" height="24px" viewBox="0 0 24 24" version="1.1" xmlns="http://www.w3.org/2000/svg" xmlns:xlink="http://www.w3.org/1999/xlink">
    <title>3.Masa/Documento_Archivo AVI_3masa</title>
    <g id="Symbols" stroke="none" stroke-width="1" fill="none" fill-rule="evenodd">
        <g id="3.Masa/Documento_Archivo-AVI_3masa" fill="#5CB615" fill-rule="nonzero">
            <path d="M16.2117647,0.0302521008 C16.4907563,0.0302521008 16.7529412,0.134453782 16.9478992,0.329411765 L23.3042017,6.48067227 C23.4386555,6.61176471 23.5159664,6.77310924 23.5663866,6.94453782 C23.6033613,7.03193277 23.6235294,7.12941176 23.6235294,7.2302521 L23.6235294,21.9966387 C23.6235294,22.897479 22.8504202,23.6571429 21.9327731,23.6571429 L7.31428571,23.6571429 C6.41344538,23.6571429 5.62689076,22.8806723 5.62689076,21.9966387 L5.66722689,18.6722689 L2.90756302,18.6722689 C1.30756302,18.6722689 0.00336134409,17.3647059 0.00336134409,15.7613445 L0.00336134409,10.8470588 C0.00336134409,9.24369748 1.30756302,7.93613445 2.90756302,7.93613445 L5.62689076,7.93613445 L5.62689076,1.6907563 C5.62689076,0.820168067 6.43361344,0.0302521008 7.31428571,0.0302521008 L16.2117647,0.0302521008 Z M14.7193277,9.39495798 L2.90420168,9.39495798 C2.10420168,9.39495798 1.45546218,10.0470588 1.45546218,10.8470588 L1.45546218,15.7613445 C1.45546218,16.5613445 2.10420168,17.2134454 2.90420168,17.2134454 L14.7193277,17.2134454 C15.5193277,17.2134454 16.1680672,16.5613445 16.1680672,15.7613445 L16.1680672,10.8470588 C16.1680672,10.0470588 15.5193277,9.39495798 14.7193277,9.39495798 Z M6.16134454,11.2739496 L7.75798319,15.6941176 L6.6789916,15.6941176 L6.3092437,14.5815126 L4.87394958,14.5815126 L4.53109244,15.6941176 L3.56638655,15.6941176 L5.0487395,11.2739496 L6.16134454,11.2739496 Z M8.67563025,11.2739496 L9.71092437,14.4806723 L10.6756303,11.2739496 L11.6571429,11.2739496 L10.1882353,15.6941176 L9.13613445,15.6941176 L7.59663866,11.2739496 L8.67563025,11.2739496 Z M13.2369748,11.2739496 L13.2369748,15.6941176 L12.2285714,15.6941176 L12.2285714,11.2739496 L13.2369748,11.2739496 Z M5.57983193,12.3798319 L5.56638655,12.3798319 L5.10588235,13.8521008 L6.06386555,13.8521008 L5.57983193,12.3798319 Z M16.615126,2.03361345 L16.615126,4.1512605 C16.615126,4.94117647 16.8739496,5.60672269 17.3613445,6.08067227 C17.8588235,6.56134454 18.5579832,6.81344538 19.3915966,6.81344538 L21.5493613,6.8132521 L16.615126,2.03361345 Z" id="Documento_Archivo-AVI_3masa"></path>
        </g>
    </g>
</svg>

<svg width="24" height="24" viewBox="0 0 24 24" xmlns="http://www.w3.org/2000/svg"><path d="M16.212.03c.279 0 .54.104.736.3l6.356 6.15c.135.132.212.293.262.465a.735.735 0 01.058.285v14.767c0 .9-.774 1.66-1.691 1.66H7.314c-.9 0-1.687-.776-1.687-1.66l.04-3.325h-2.76a2.913 2.913 0 01-2.904-2.91v-4.915a2.913 2.913 0 012.905-2.91h2.719V1.69c0-.87.807-1.66 1.687-1.66h8.898zm-1.493 9.365H2.904c-.8 0-1.449.652-1.449 1.452v4.914c0 .8.65 1.452 1.45 1.452h11.814c.8 0 1.45-.652 1.45-1.452v-4.914c0-.8-.65-1.452-1.45-1.452zm-8.558 1.879l1.597 4.42H6.679l-.37-1.112H4.874l-.343 1.112h-.965l1.483-4.42H6.16zm2.515 0L9.71 14.48l.965-3.207h.981l-1.469 4.42H9.136l-1.54-4.42h1.08zm4.561 0v4.42h-1.008v-4.42h1.008zM5.58 12.38h-.014l-.46 1.472h.958L5.58 12.38zM16.615 2.034V4.15c0 .79.259 1.456.746 1.93.498.48 1.197.732 2.03.732h2.158l-4.934-4.78z" fill="#5CB615" fill-rule="nonzero"/></svg>
